<?xml version="1.0" encoding="UTF-8"?>
<map version="1.10" tiledversion="1.11.2" orientation="orthogonal" renderorder="right-down" width="80" height="50" tilewidth="32" tileheight="32" infinite="0" nextlayerid="51" nextobjectid="118">
 <editorsettings>
  <export format="json"/>
 </editorsettings>
 <tileset firstgid="1" name="TX_tileset_grass" tilewidth="32" tileheight="32" tilecount="256" columns="16">
  <grid orientation="isometric" width="64" height="64"/>
  <image source="TX_tileset_grass.png" width="512" height="512"/>
 </tileset>
 <tileset firstgid="257" name="TX_tileset_stone_ground" tilewidth="32" tileheight="32" tilecount="256" columns="16">
  <image source="TX_tileset_stone_ground.png" width="512" height="512"/>
  <wangsets>
   <wangset name="Unnamed Set" type="mixed" tile="-1">
    <wangcolor name="" color="#ff0000" tile="-1" probability="1"/>
    <wangtile tileid="0" wangid="0,0,0,1,0,0,0,0"/>
    <wangtile tileid="1" wangid="0,0,0,0,1,0,0,0"/>
    <wangtile tileid="2" wangid="0,0,0,0,1,0,0,0"/>
    <wangtile tileid="3" wangid="0,0,0,0,1,0,0,0"/>
    <wangtile tileid="4" wangid="0,0,0,0,1,0,0,0"/>
    <wangtile tileid="5" wangid="0,0,0,0,0,1,0,0"/>
    <wangtile tileid="16" wangid="0,0,1,0,0,0,0,0"/>
    <wangtile tileid="21" wangid="0,0,0,0,0,0,1,0"/>
    <wangtile tileid="32" wangid="0,0,1,0,0,0,0,0"/>
    <wangtile tileid="34" wangid="1,1,1,1,1,1,1,1"/>
    <wangtile tileid="35" wangid="1,1,1,1,1,1,1,1"/>
    <wangtile tileid="37" wangid="0,0,0,0,0,0,1,0"/>
    <wangtile tileid="48" wangid="0,0,1,0,0,0,0,0"/>
    <wangtile tileid="50" wangid="1,1,1,1,1,1,1,1"/>
    <wangtile tileid="51" wangid="1,1,1,1,1,1,1,1"/>
    <wangtile tileid="53" wangid="0,0,0,0,0,0,1,0"/>
    <wangtile tileid="64" wangid="0,0,1,0,0,0,0,0"/>
    <wangtile tileid="69" wangid="0,0,0,0,0,0,1,0"/>
    <wangtile tileid="80" wangid="0,1,0,0,0,0,0,0"/>
    <wangtile tileid="81" wangid="1,0,0,0,0,0,0,0"/>
    <wangtile tileid="82" wangid="1,0,0,0,0,0,0,0"/>
    <wangtile tileid="83" wangid="1,0,0,0,0,0,0,0"/>
    <wangtile tileid="84" wangid="1,0,0,0,0,0,0,0"/>
    <wangtile tileid="85" wangid="0,0,0,0,0,0,0,1"/>
   </wangset>
  </wangsets>
 </tileset>
 <tileset firstgid="513" name="TX_shadow" tilewidth="32" tileheight="32" tilecount="1024" columns="32">
  <image source="TX_shadow.png" width="1024" height="1024"/>
 </tileset>
 <tileset firstgid="1537" name="TX_player" tilewidth="32" tileheight="32" tilecount="64" columns="8">
  <image source="TX_player.png" width="256" height="256"/>
 </tileset>
 <tileset firstgid="1601" name="TX_props" tilewidth="32" tileheight="32" tilecount="1024" columns="32">
  <image source="TX_props.png" width="1024" height="1024"/>
  <tile id="78">
   <objectgroup draworder="index" id="2">
    <object id="1" x="6" y="16" width="26" height="16"/>
   </objectgroup>
  </tile>
  <tile id="79">
   <objectgroup draworder="index" id="2">
    <object id="1" x="0.125" y="16" width="26" height="16"/>
   </objectgroup>
  </tile>
  <tile id="110">
   <objectgroup draworder="index" id="2">
    <object id="1" x="6" y="0" width="26" height="26"/>
   </objectgroup>
  </tile>
  <tile id="111">
   <objectgroup draworder="index" id="2">
    <object id="1" x="0" y="0" width="26" height="26"/>
   </objectgroup>
  </tile>
  <tile id="270">
   <objectgroup draworder="index" id="2">
    <object id="1" x="6" y="16" width="26" height="16" visible="0"/>
    <object id="2" x="6" y="16" width="26" height="16"/>
   </objectgroup>
  </tile>
  <tile id="271">
   <objectgroup draworder="index" id="2">
    <object id="1" x="0" y="16" width="26" height="16"/>
   </objectgroup>
  </tile>
  <tile id="302">
   <objectgroup draworder="index" id="2">
    <object id="1" x="6" y="0" width="26" height="26"/>
   </objectgroup>
  </tile>
  <tile id="303">
   <objectgroup draworder="index" id="2">
    <object id="1" x="0" y="0" width="26" height="26"/>
   </objectgroup>
  </tile>
  <tile id="398">
   <objectgroup draworder="index" id="2">
    <object id="1" x="6" y="16" width="26" height="16"/>
   </objectgroup>
  </tile>
  <tile id="399">
   <objectgroup draworder="index" id="2">
    <object id="1" x="0" y="16" width="26" height="16"/>
   </objectgroup>
  </tile>
  <tile id="430">
   <objectgroup draworder="index" id="2">
    <object id="1" x="6" y="0" width="26" height="26"/>
   </objectgroup>
  </tile>
  <tile id="431">
   <objectgroup draworder="index" id="2">
    <object id="1" x="0" y="0" width="26" height="26"/>
   </objectgroup>
  </tile>
 </tileset>
 <tileset firstgid="2625" name="grassForRandom" tilewidth="64" tileheight="64" tilecount="64" columns="8">
  <image source="TX_tileset_grass.png" width="512" height="512"/>
 </tileset>
 <tileset firstgid="2689" name="basicTile" tilewidth="32" tileheight="32" tilecount="64" columns="8">
  <image source="basicTile.png" width="256" height="256"/>
  <tile id="46">
   <objectgroup draworder="index" id="3">
    <object id="2" x="0" y="0" width="16" height="32"/>
   </objectgroup>
  </tile>
  <tile id="47">
   <objectgroup draworder="index" id="2">
    <object id="1" x="16" y="0" width="16" height="32"/>
   </objectgroup>
  </tile>
  <tile id="55">
   <objectgroup draworder="index" id="2">
    <object id="1" x="0" y="0" width="32" height="32"/>
   </objectgroup>
  </tile>
 </tileset>
 <tileset firstgid="2753" name="TX_tileset_wall" tilewidth="32" tileheight="32" tilecount="1024" columns="32">
  <image source="TX_tileset_wall.png" width="1024" height="1024"/>
  <tile id="66">
   <objectgroup draworder="index" id="5">
    <object id="8" template="wallside.tx" x="1.99609" y="1.99609">
     <polygon points="0,0 13.9984,13.9984 14.015,29.9983 -1.99609,30.0039 -1.99609,2.00391"/>
    </object>
    <object id="10" x="32" y="15.9922">
     <polygon points="-0.0273438,0.0195313 -16,0.0078125 -30,-13.9922 -28.0313,-15.9922 -0.03125,-16"/>
    </object>
   </objectgroup>
  </tile>
  <tile id="67">
   <objectgroup draworder="index" id="2">
    <object id="1" x="0" y="0" width="32" height="16"/>
   </objectgroup>
  </tile>
  <tile id="68">
   <objectgroup draworder="index" id="2">
    <object id="1" x="0" y="0" width="32" height="16"/>
   </objectgroup>
  </tile>
  <tile id="69">
   <objectgroup draworder="index" id="2">
    <object id="1" x="0" y="0" width="32" height="16"/>
   </objectgroup>
  </tile>
  <tile id="70">
   <objectgroup draworder="index" id="2">
    <object id="1" x="0" y="0" width="32" height="16"/>
   </objectgroup>
  </tile>
  <tile id="71">
   <objectgroup draworder="index" id="2">
    <object id="1" template="wallside.tx" x="29.9794" y="1.99743" rotation="0">
     <polygon points="0,0 -13.9984,13.9984 -14.015,29.9983 1.99609,30.0039 1.99609,2.00391"/>
    </object>
    <object id="3" x="15.9565" y="16">
     <polygon points="0,0 -15.8696,0.0434783 -15.9565,-16 11.9565,-16 13.9565,-14.1304"/>
    </object>
   </objectgroup>
  </tile>
  <tile id="98">
   <objectgroup draworder="index" id="2">
    <object id="2" x="0" y="0" width="16.0069" height="32"/>
   </objectgroup>
  </tile>
  <tile id="103">
   <objectgroup draworder="index" id="2">
    <object id="1" x="16" y="0" width="16" height="32"/>
   </objectgroup>
  </tile>
  <tile id="130">
   <objectgroup draworder="index" id="2">
    <object id="1" x="0" y="0" width="16.0069" height="32"/>
   </objectgroup>
  </tile>
  <tile id="135">
   <objectgroup draworder="index" id="2">
    <object id="1" x="16" y="0" width="16" height="32"/>
   </objectgroup>
  </tile>
  <tile id="162">
   <objectgroup draworder="index" id="4">
    <object id="7" x="0" y="0" width="16.0069" height="32"/>
   </objectgroup>
  </tile>
  <tile id="167">
   <objectgroup draworder="index" id="2">
    <object id="1" x="16" y="0" width="16" height="32"/>
   </objectgroup>
  </tile>
  <tile id="194">
   <objectgroup draworder="index" id="2">
    <object id="1" x="0" y="0" width="32" height="32"/>
   </objectgroup>
  </tile>
  <tile id="195">
   <objectgroup draworder="index" id="2">
    <object id="1" x="0" y="0" width="32" height="32"/>
   </objectgroup>
  </tile>
  <tile id="196">
   <objectgroup draworder="index" id="2">
    <object id="1" x="0" y="0" width="32" height="32"/>
   </objectgroup>
  </tile>
  <tile id="197">
   <objectgroup draworder="index" id="2">
    <object id="1" x="0" y="0" width="32" height="32"/>
   </objectgroup>
  </tile>
  <tile id="198">
   <objectgroup draworder="index" id="2">
    <object id="1" x="0" y="0" width="32" height="32"/>
    <object id="2" x="0" y="0" width="32" height="32"/>
   </objectgroup>
  </tile>
  <tile id="199">
   <objectgroup draworder="index" id="2">
    <object id="1" x="0" y="0" width="32" height="32"/>
   </objectgroup>
  </tile>
  <tile id="226">
   <objectgroup draworder="index" id="3">
    <object id="2" x="4" y="0" width="28" height="32"/>
    <object id="3" x="4.11603" y="3.94802">
     <polygon points="-0.0777778,0.0555556 -2.08757,0.0555556 -4.16536,-1.96535 -4.11603,-3.94802 -0.0840005,-3.94802"/>
    </object>
   </objectgroup>
  </tile>
  <tile id="231">
   <objectgroup draworder="index" id="3">
    <object id="2" x="0" y="0" width="28" height="32"/>
    <object id="4" x="27.9889" y="3.98889">
     <polygon points="0,0 2,0 4.01111,-2 4.01111,-3.98889 0,-4"/>
    </object>
    <object id="5" x="0" y="0" width="32" height="32"/>
   </objectgroup>
  </tile>
  <tile id="258">
   <objectgroup draworder="index" id="2">
    <object id="1" x="4" y="0" width="28" height="32"/>
   </objectgroup>
  </tile>
  <tile id="263">
   <objectgroup draworder="index" id="2">
    <object id="1" x="0" y="0" width="28" height="32"/>
   </objectgroup>
  </tile>
  <tile id="290">
   <objectgroup draworder="index" id="2">
    <object id="3" x="4" y="0" width="28" height="32"/>
   </objectgroup>
  </tile>
  <tile id="291">
   <objectgroup draworder="index" id="2">
    <object id="1" x="0" y="0" width="32" height="32"/>
   </objectgroup>
  </tile>
  <tile id="292">
   <objectgroup draworder="index" id="2">
    <object id="1" x="0" y="0" width="32" height="32"/>
   </objectgroup>
  </tile>
  <tile id="293">
   <objectgroup draworder="index" id="2">
    <object id="1" x="0" y="0" width="32" height="32"/>
   </objectgroup>
  </tile>
  <tile id="294">
   <objectgroup draworder="index" id="2">
    <object id="1" x="0" y="0" width="32" height="32"/>
   </objectgroup>
  </tile>
  <tile id="295">
   <objectgroup draworder="index" id="2">
    <object id="1" x="0" y="0" width="28" height="32"/>
   </objectgroup>
  </tile>
 </tileset>
 <tileset firstgid="3777" name="foods" tilewidth="32" tileheight="32" tilecount="1591" columns="37">
  <image source="foods.png" width="1200" height="1400"/>
 </tileset>
 <tileset firstgid="5368" name="unitPresets" tilewidth="32" tileheight="32" tilecount="64" columns="8">
  <image source="unitPresets.png" width="256" height="256"/>
 </tileset>
 <tileset firstgid="5432" name="TX_plant" tilewidth="32" tileheight="32" tilecount="1024" columns="32">
  <image source="TX_plant.png" width="1024" height="1024"/>
 </tileset>
 <tileset firstgid="6456" name="TX_shadow_plant" tilewidth="32" tileheight="32" tilecount="1024" columns="32">
  <image source="TX_shadow_plant.png" width="1024" height="1024"/>
 </tileset>
 <tileset firstgid="7480" name="FD_Ground_Tiles" tilewidth="32" tileheight="32" tilecount="1911" columns="39">
  <image source="../res/gfx/sprite_sheets/map/Fantasy/FD_Ground_Tiles.png" width="1248" height="1568"/>
 </tileset>
 <tileset firstgid="9391" name="FD_Village" tilewidth="32" tileheight="32" tilecount="1344" columns="32">
  <image source="../res/gfx/sprite_sheets/map/Fantasy/FD_Village.png" width="1024" height="1344"/>
 </tileset>
 <tileset firstgid="10735" source="dungeonTile.tsx"/>
 <layer id="50" name="walls" width="80" height="50">
  <data encoding="csv">
0,0,0,0,0,0,0,0,0,0,0,0,0,0,0,0,0,0,0,0,0,0,0,0,0,0,0,0,0,0,0,0,0,0,0,0,0,0,0,0,0,0,0,0,0,0,0,0,0,0,0,0,0,0,0,0,0,0,0,0,0,0,0,0,0,0,0,0,0,0,0,0,0,0,0,0,0,0,0,0,
0,0,0,0,0,0,0,0,0,0,0,0,0,0,0,0,0,0,0,0,0,0,0,0,0,0,0,0,0,0,0,0,0,0,0,0,0,0,0,0,0,0,0,0,0,0,0,0,0,0,0,0,0,0,0,0,0,0,0,0,0,0,0,0,0,0,0,0,0,0,0,0,0,0,0,0,0,0,0,0,
0,0,0,0,0,0,0,0,0,0,0,0,0,0,0,0,0,0,0,0,0,0,0,0,0,0,0,0,0,0,0,0,0,0,0,0,0,0,0,0,0,0,0,0,0,0,0,0,0,0,0,0,0,0,0,0,0,0,0,0,0,0,0,0,0,0,0,0,0,0,0,0,0,0,0,0,0,0,0,0,
0,0,0,0,0,0,0,0,0,0,0,0,0,0,0,0,0,0,0,0,0,0,0,0,0,0,0,0,0,0,0,0,0,0,0,0,0,0,0,0,0,0,0,0,0,0,0,0,0,0,0,0,0,0,0,0,0,0,0,0,0,0,0,0,0,0,0,0,0,0,0,0,0,0,0,0,0,0,0,0,
0,0,0,0,0,0,0,0,0,0,0,0,0,0,0,0,0,0,0,0,0,0,0,0,0,0,0,0,0,0,0,0,0,0,0,0,0,0,0,0,0,0,0,0,0,0,0,0,0,0,0,0,0,0,0,0,0,0,0,0,0,0,0,0,0,0,0,0,0,0,0,0,0,0,0,0,0,0,0,0,
0,0,0,0,0,0,0,0,0,0,0,0,0,0,0,0,0,0,0,0,0,0,0,0,0,0,0,0,0,0,0,0,0,0,0,0,0,0,0,0,0,0,0,0,0,0,0,0,0,0,0,0,0,0,0,0,0,0,0,0,0,0,0,0,0,0,0,0,0,0,0,0,0,0,0,0,0,0,0,0,
0,0,0,0,0,0,0,0,0,0,0,0,0,0,0,0,0,0,0,0,0,0,0,0,0,0,0,0,0,0,0,0,0,0,0,0,0,0,0,0,0,0,0,0,0,0,0,0,0,0,0,0,0,0,0,0,0,0,0,0,0,0,0,0,0,0,0,0,0,0,0,0,0,0,0,0,0,0,0,0,
0,0,0,0,0,0,0,0,0,0,0,0,0,0,0,0,0,0,0,0,0,0,0,0,0,0,0,0,0,0,0,0,0,0,0,0,0,0,0,0,0,0,0,0,0,0,0,0,0,0,0,0,0,0,0,0,0,0,0,0,0,0,0,0,0,0,0,0,0,0,0,0,0,0,0,0,0,0,0,0,
0,0,0,0,0,0,0,0,0,0,0,0,0,0,0,0,0,0,0,0,0,0,0,0,0,0,0,0,0,0,0,0,0,0,0,0,0,0,0,0,0,0,0,0,0,0,0,0,0,0,0,0,0,0,0,0,0,0,0,0,0,0,0,0,0,0,0,0,0,0,0,0,0,0,0,0,0,0,0,0,
0,0,0,0,0,0,0,0,0,0,0,0,0,0,0,0,0,0,0,0,0,0,0,0,0,0,0,0,0,0,0,0,0,0,0,0,0,0,0,0,0,0,0,0,0,0,0,0,0,0,0,0,0,0,0,0,0,0,0,0,0,0,0,0,0,0,0,0,0,0,0,0,0,0,0,0,0,0,0,0,
0,0,0,0,0,0,0,0,0,0,0,0,0,0,0,0,0,0,0,0,0,0,0,0,0,0,0,0,0,0,0,0,0,0,0,0,0,0,0,0,0,0,0,0,0,0,0,0,0,0,0,0,0,0,0,0,0,0,0,0,0,0,0,0,0,0,0,0,0,0,0,0,0,0,0,0,0,0,0,0,
0,0,0,0,0,0,0,0,0,0,0,0,0,0,0,0,0,0,0,0,0,0,0,0,0,0,0,0,0,0,0,0,0,0,0,0,0,0,0,0,0,0,0,0,0,0,0,0,0,0,0,0,0,0,0,0,0,0,0,0,0,0,0,0,0,0,0,0,0,0,0,0,0,0,0,0,0,0,0,0,
0,0,0,0,0,0,0,0,0,0,0,0,0,0,0,0,0,0,0,0,0,0,0,0,0,0,0,0,0,0,0,0,0,0,0,0,0,0,0,0,0,0,0,0,0,0,0,0,0,0,0,0,0,0,0,0,0,0,0,0,0,0,0,0,0,0,0,0,0,0,0,0,0,0,0,0,0,0,0,0,
0,0,0,0,0,0,0,0,0,0,0,0,0,0,0,0,0,0,0,0,0,0,0,0,0,0,0,0,0,0,0,0,0,0,0,0,0,0,0,0,0,0,0,0,0,0,0,0,0,0,0,0,0,0,0,0,0,0,0,0,0,0,0,0,0,0,0,0,0,0,0,0,0,0,0,0,0,0,0,0,
0,0,0,0,0,0,0,0,0,0,0,0,0,0,0,0,0,0,0,0,0,0,0,0,0,0,0,0,0,0,0,0,0,0,0,0,0,0,0,0,0,0,0,0,0,0,0,0,0,0,0,0,0,0,0,0,0,0,0,0,0,0,0,0,0,0,0,0,0,0,0,0,0,0,0,0,0,0,0,0,
0,0,0,0,0,0,0,0,0,0,0,0,0,0,0,0,0,0,0,0,0,0,0,0,0,0,0,0,0,0,0,0,0,0,0,0,0,0,0,0,0,0,0,0,0,0,0,0,0,0,0,0,0,0,0,0,0,0,0,0,0,0,0,0,0,0,0,0,0,0,0,0,0,0,0,0,0,0,0,0,
0,0,0,0,0,0,0,0,0,0,0,0,0,0,0,0,0,0,0,0,0,0,0,0,0,0,0,0,0,0,0,0,0,0,0,0,0,0,0,0,0,0,0,0,0,0,0,0,0,0,0,0,0,0,0,0,0,0,0,0,0,0,0,0,0,0,0,0,0,0,0,0,0,0,0,0,0,0,0,0,
10751,10752,10752,10752,10752,10752,10752,10752,10752,10752,10752,10752,10752,10752,10752,10753,0,0,0,0,0,0,0,0,0,0,0,0,0,0,0,0,0,0,0,0,0,0,0,0,0,0,0,0,0,0,0,0,0,0,0,0,0,0,0,0,0,0,0,0,0,0,0,0,0,0,0,0,0,0,0,0,0,0,0,0,0,0,0,0,
0,0,0,0,0,0,0,0,0,0,0,0,0,0,0,10768,0,0,0,0,0,0,0,0,0,0,0,0,0,0,0,0,0,0,0,0,0,0,0,0,0,0,0,0,0,0,0,0,0,0,0,0,0,0,0,0,0,0,0,0,0,0,0,0,0,0,0,0,0,0,0,0,0,0,0,0,0,0,0,0,
0,0,0,0,0,0,0,0,0,0,0,0,0,0,0,10768,0,0,0,0,0,0,0,0,0,0,0,0,0,0,0,0,0,0,0,0,0,0,0,0,0,0,0,0,0,0,0,0,0,0,0,0,0,0,0,0,0,0,0,0,0,0,0,0,0,0,0,0,0,0,0,0,0,0,0,0,0,0,0,0,
0,0,0,0,0,0,0,0,0,0,0,0,0,0,0,10768,0,0,0,0,0,0,0,0,0,0,0,0,0,0,0,0,0,0,0,0,0,0,0,0,0,0,0,0,0,0,0,0,0,0,0,0,0,0,0,0,0,0,0,0,0,0,0,0,0,0,0,0,0,0,0,0,0,0,0,0,0,0,0,0,
0,0,0,0,0,0,0,0,0,0,0,0,0,0,0,10768,0,0,0,0,0,0,0,0,0,0,0,0,0,0,0,0,0,0,0,0,0,0,0,0,0,0,0,0,0,0,0,0,0,0,0,0,0,0,0,0,0,0,0,0,0,0,0,0,0,0,0,0,0,0,0,0,0,0,0,0,0,0,0,0,
0,0,0,0,0,0,0,0,0,0,0,0,0,0,0,10768,0,0,0,0,0,0,0,0,0,0,0,0,0,0,0,0,0,0,0,0,0,0,0,0,0,0,0,0,0,0,0,0,0,0,0,0,0,0,0,0,0,0,0,0,0,0,0,0,0,0,0,0,0,0,0,0,0,0,0,0,0,0,0,0,
0,0,0,0,0,0,0,0,0,0,0,0,0,0,0,10768,0,0,0,0,0,0,0,0,0,0,0,0,0,0,0,0,0,0,0,0,0,0,0,0,0,0,0,0,0,0,0,0,0,0,0,0,0,0,0,0,0,0,0,0,0,0,0,0,0,0,0,0,0,0,0,0,0,0,0,0,0,0,0,0,
0,0,0,0,0,0,0,0,0,0,0,0,0,0,0,10768,0,0,0,0,0,0,0,0,0,0,0,0,0,0,0,0,0,0,0,0,0,0,0,0,0,0,0,0,0,0,0,0,0,0,0,0,0,0,0,0,0,0,0,0,0,0,0,0,0,0,0,0,0,0,0,0,0,0,0,0,0,0,0,0,
0,0,0,0,0,0,0,0,0,0,0,0,0,0,0,10768,0,0,0,0,0,0,0,0,0,0,0,0,0,0,0,0,0,0,0,0,0,0,0,0,0,0,0,0,0,0,0,0,0,0,0,0,0,0,0,0,0,0,0,0,0,0,0,0,0,0,0,0,0,0,0,0,0,0,0,0,0,0,0,0,
0,0,0,0,0,0,0,0,0,0,0,0,0,0,0,10768,0,0,0,0,0,0,0,0,0,0,0,0,0,0,0,0,0,0,0,0,0,0,0,0,0,0,0,0,0,0,0,0,0,0,0,0,0,0,0,0,0,0,0,0,0,0,0,0,0,0,0,0,0,0,0,0,0,0,0,0,0,0,0,0,
0,0,0,0,0,0,0,0,0,0,0,0,0,0,0,10771,10752,10752,10752,10752,10752,10752,10752,10752,10752,10752,10752,10752,10752,10752,10752,10753,0,0,0,0,0,0,0,0,0,0,0,0,0,0,0,0,0,0,0,0,0,0,0,0,0,0,0,0,0,0,0,0,0,0,0,0,0,0,0,0,0,0,0,0,0,0,0,0,
0,0,0,0,0,0,0,0,0,0,0,0,0,0,0,0,0,0,0,0,0,0,0,0,0,0,0,0,0,0,0,10768,0,0,0,0,0,0,0,0,0,0,0,0,0,0,0,0,0,0,0,0,0,0,0,0,0,0,0,0,0,0,0,0,0,0,0,0,0,0,0,0,0,0,0,0,0,0,0,0,
0,0,0,0,0,0,0,0,0,0,0,0,0,0,0,0,0,0,0,0,0,0,0,0,0,0,0,0,0,0,0,10768,0,0,0,0,0,0,0,0,0,0,0,0,0,0,0,0,0,0,0,0,0,0,0,0,0,0,0,0,0,0,0,0,0,0,0,0,0,0,0,0,0,0,0,0,0,0,0,0,
0,0,0,0,0,0,0,0,0,0,0,0,0,0,0,0,0,0,0,0,0,0,0,0,0,0,0,0,0,0,0,10768,0,0,0,0,0,0,0,0,0,0,0,0,0,0,0,0,0,0,0,0,0,0,0,0,0,0,0,0,0,0,0,0,0,0,0,0,0,0,0,0,0,0,0,0,0,0,0,0,
0,0,0,0,0,0,0,0,0,0,0,0,0,0,0,0,0,0,0,0,0,0,0,0,0,0,0,0,0,0,0,10768,0,0,0,0,0,0,0,0,0,0,0,0,0,0,0,0,0,0,0,0,0,0,0,0,0,0,0,0,0,0,0,0,0,0,0,0,0,0,0,0,0,0,0,0,0,0,0,0,
0,0,0,0,0,0,0,0,0,0,0,0,0,0,0,0,0,0,0,0,0,0,0,0,0,0,0,0,0,0,0,10768,0,0,0,0,0,0,0,0,0,0,0,0,0,0,0,0,0,0,0,0,0,0,0,0,0,0,0,0,0,0,0,0,0,0,0,0,0,0,0,0,0,0,0,0,0,0,0,0,
0,0,0,0,0,0,0,0,0,0,0,0,0,0,0,0,0,0,0,0,0,0,0,0,0,0,0,0,0,0,0,10783,0,0,0,0,0,0,0,0,0,0,0,0,0,0,0,0,0,0,0,0,0,0,0,0,0,0,0,0,0,0,0,0,0,0,0,0,0,0,0,0,0,0,0,0,0,0,0,0,
0,0,0,0,0,0,0,0,0,0,0,0,0,0,0,0,0,0,0,0,0,0,0,0,0,0,0,0,0,0,0,0,0,0,0,0,0,0,0,0,0,0,0,0,0,0,0,0,0,0,0,0,0,0,0,0,0,0,0,0,0,0,0,0,0,0,0,0,0,0,0,0,0,0,0,0,0,0,0,0,
0,0,0,0,0,0,0,0,0,0,0,0,0,0,0,0,0,0,0,0,0,0,0,0,0,0,0,0,0,0,0,0,0,0,0,0,0,0,0,0,0,0,0,0,0,0,0,0,0,0,0,0,0,0,0,0,0,0,0,0,0,0,0,0,0,0,0,0,0,0,0,0,0,0,0,0,0,0,0,0,
0,0,0,0,0,0,0,0,0,0,0,0,0,0,0,0,0,0,0,0,0,0,0,0,0,0,0,0,0,0,0,0,0,0,0,0,0,0,0,0,0,0,0,0,0,0,0,0,0,0,0,0,0,0,0,0,0,0,0,0,0,0,0,0,0,0,0,0,0,0,0,0,0,0,0,0,0,0,0,0,
0,0,0,0,0,0,0,0,0,0,0,0,0,0,0,0,0,0,0,0,0,0,0,0,0,0,0,0,0,0,0,0,0,0,0,0,0,0,0,0,0,0,0,0,0,0,0,0,0,0,0,0,0,0,0,0,0,0,0,0,0,0,0,0,0,0,0,0,0,0,0,0,0,0,0,0,0,0,0,0,
0,0,0,0,0,0,0,0,0,0,0,0,0,0,0,0,0,0,0,0,0,0,0,10752,10752,10752,10752,10752,10752,10752,10752,10752,0,0,0,0,0,0,0,0,0,0,0,0,0,0,0,0,0,0,0,0,0,0,0,0,0,0,0,0,0,0,0,0,0,0,0,0,0,0,0,0,0,0,0,0,0,0,0,0,
0,0,0,0,0,0,0,0,0,0,0,0,0,0,0,0,0,0,0,0,0,0,0,0,0,0,0,0,0,0,0,0,0,0,0,0,0,0,0,0,0,0,0,0,0,0,0,0,0,0,0,0,0,0,0,0,0,0,0,0,0,0,0,0,0,0,0,0,0,0,0,0,0,0,0,0,0,0,0,0,
0,0,0,0,0,0,0,0,0,0,0,0,0,0,0,0,0,0,0,0,0,0,0,0,0,0,0,0,0,0,0,0,0,0,0,0,0,0,0,0,0,0,0,0,0,0,0,0,0,0,0,0,0,0,0,0,0,0,0,0,0,0,0,0,0,0,0,0,0,0,0,0,0,0,0,0,0,0,0,0,
0,0,0,0,0,0,0,0,0,0,0,0,0,0,0,0,0,0,0,0,0,0,0,0,0,0,0,0,0,0,0,0,0,0,0,0,0,0,0,0,0,0,0,0,0,0,0,0,0,0,0,0,0,0,0,0,0,0,0,0,0,0,0,0,0,0,0,0,0,0,0,0,0,0,0,0,0,0,0,0,
0,0,0,0,0,0,0,0,0,0,0,0,0,0,0,0,0,0,0,0,0,0,0,0,0,0,0,0,0,0,0,0,0,0,0,0,0,0,0,0,0,0,0,0,0,0,0,0,0,0,0,0,0,0,0,0,0,0,0,0,0,0,0,0,0,0,0,0,0,0,0,0,0,0,0,0,0,0,0,0,
0,0,0,0,0,0,0,0,0,0,0,0,0,0,0,0,0,0,0,0,0,0,0,0,0,0,0,0,0,0,0,0,0,0,0,0,0,0,0,0,0,0,0,0,0,0,0,0,0,0,0,0,0,0,0,0,0,0,0,0,0,0,0,0,0,0,0,0,0,0,0,0,0,0,0,0,0,0,0,0,
0,0,0,0,0,0,0,0,0,0,0,0,0,0,0,0,0,0,0,0,0,0,0,0,0,0,0,0,0,0,0,0,0,0,0,0,0,0,0,0,0,0,0,0,0,0,0,0,0,0,0,0,0,0,0,0,0,0,0,0,0,0,0,0,0,0,0,0,0,0,0,0,0,0,0,0,0,0,0,0,
0,0,0,0,0,0,0,0,0,0,0,0,0,0,0,0,0,0,0,0,0,0,0,0,0,0,0,0,0,0,0,0,0,0,0,0,0,0,0,0,0,0,0,0,0,0,0,0,0,0,0,0,0,0,0,0,0,0,0,0,0,0,0,0,0,0,0,0,0,0,0,0,0,0,0,0,0,0,0,0,
0,0,0,0,0,0,0,0,0,0,0,0,0,0,0,0,0,0,0,0,0,0,0,0,0,0,0,0,0,0,0,0,0,0,0,0,0,0,0,0,0,0,0,0,0,0,0,0,0,0,0,0,0,0,0,0,0,0,0,0,0,0,0,0,0,0,0,0,0,0,0,0,0,0,0,0,0,0,0,0,
0,0,0,0,0,0,0,0,0,0,0,0,0,0,0,0,0,0,0,0,0,0,0,0,0,0,0,0,0,0,0,0,0,0,0,0,0,0,0,0,0,0,0,0,0,0,0,0,0,0,0,0,0,0,0,0,0,0,0,0,0,0,0,0,0,0,0,0,0,0,0,0,0,0,0,0,0,0,0,0,
0,0,0,0,0,0,0,0,0,0,0,0,0,0,0,0,0,0,0,0,0,0,0,0,0,0,0,0,0,0,0,0,0,0,0,0,0,0,0,0,0,0,0,0,0,0,0,0,0,0,0,0,0,0,0,0,0,0,0,0,0,0,0,0,0,0,0,0,0,0,0,0,0,0,0,0,0,0,0,0,
0,0,0,0,0,0,0,0,0,0,0,0,0,0,0,0,0,0,0,0,0,0,0,0,0,0,0,0,0,0,0,0,0,0,0,0,0,0,0,0,0,0,0,0,0,0,0,0,0,0,0,0,0,0,0,0,0,0,0,0,0,0,0,0,0,0,0,0,0,0,0,0,0,0,0,0,0,0,0,0
</data>
 </layer>
</map>
