<?xml version="1.0" encoding="UTF-8"?>
<map version="1.10" tiledversion="1.11.2" orientation="orthogonal" renderorder="right-down" width="80" height="80" tilewidth="32" tileheight="32" infinite="0" nextlayerid="5" nextobjectid="12">
 <editorsettings>
  <export target="renew_defense_map.tmj" format="json"/>
 </editorsettings>
 <tileset firstgid="1" name="TX_tileset_grass" tilewidth="32" tileheight="32" tilecount="256" columns="16">
  <image source="TX_tileset_grass.png" width="512" height="512"/>
 </tileset>
 <tileset firstgid="257" name="TX_tileset_wall" tilewidth="32" tileheight="32" tilecount="1024" columns="32">
  <image source="TX_tileset_wall.png" width="1024" height="1024"/>
 </tileset>
 <tileset firstgid="1281" name="basicTile" tilewidth="32" tileheight="32" tilecount="64" columns="8">
  <image source="basicTile.png" width="256" height="256"/>
 </tileset>
 <layer id="1" name="ground" width="80" height="80">
  <data encoding="csv">
19,81,69,83,86,55,8,22,84,114,4,40,34,17,40,24,115,85,18,38,87,53,69,97,1,118,71,19,37,117,56,8,86,85,19,70,66,36,68,24,119,56,81,53,86,20,114,39,50,83,1,97,82,7,24,5,37,51,85,120,39,6,35,20,4,88,53,101,81,67,114,54,81,99,85,1,23,86,8,20,
81,81,7,98,54,88,86,116,101,1,98,22,18,3,116,3,100,98,67,2,103,2,56,86,67,8,81,69,24,20,3,36,116,20,1,37,82,33,40,104,103,83,36,33,24,6,40,87,70,70,114,37,40,72,56,7,104,51,36,36,22,87,120,113,67,104,1,117,118,118,98,1,84,22,88,49,116,65,116,86,
81,104,6,67,36,54,4,3,36,49,116,69,55,97,86,50,34,120,70,54,35,98,103,55,103,70,51,6,103,87,33,23,34,5,99,49,117,88,21,117,103,72,2,98,81,24,84,54,83,97,119,34,69,18,1,98,49,19,68,65,103,24,34,53,101,114,117,34,50,52,2,50,101,38,65,24,88,6,22,3,
71,98,102,36,97,6,20,82,82,35,100,118,99,6,82,22,102,17,55,66,49,84,36,3,116,49,55,71,81,119,65,88,33,40,24,33,50,55,54,84,36,49,56,33,21,65,49,66,39,103,5,66,101,115,17,116,70,36,65,99,24,40,20,5,87,23,104,87,39,86,33,98,49,17,7,119,55,65,50,101,
118,103,6,68,119,67,101,33,88,55,5,52,113,115,69,113,120,17,39,99,101,71,3,7,99,22,115,104,85,85,81,50,2,33,7,98,49,88,82,87,24,102,50,51,49,18,51,99,98,97,65,3,115,7,18,70,4,4,19,82,113,82,19,4,55,84,82,56,6,52,69,116,1,85,52,118,20,56,104,37,
103,72,66,21,81,67,87,40,5,101,38,118,21,22,82,120,4,40,18,70,85,113,100,83,104,120,23,104,52,34,104,6,87,86,87,54,19,33,102,1,56,87,35,20,72,69,54,104,87,69,83,68,65,99,52,53,115,52,37,71,114,21,3,66,18,119,98,87,18,39,49,2,6,5,17,5,115,50,103,67,
113,115,102,36,113,7,115,22,54,56,56,68,66,34,84,18,65,2,85,7,5,71,34,116,51,115,99,88,7,17,19,21,54,38,114,5,113,70,116,23,52,3,40,98,2,87,40,37,100,49,71,36,33,56,68,2,70,24,102,7,7,84,72,54,3,119,67,34,20,66,17,40,54,82,104,2,20,20,36,65,
3,40,118,68,70,101,86,22,71,37,51,54,18,82,40,8,99,34,9,10,6,49,35,24,117,4,97,7,72,7,55,103,103,65,8,85,85,101,68,68,83,66,119,115,53,56,3,52,39,101,120,104,71,54,116,81,115,1,100,2,71,115,24,4,56,22,84,116,67,70,36,23,104,40,102,119,38,52,38,104,
7,72,22,35,67,51,50,99,24,40,35,22,23,81,103,34,82,104,25,26,120,3,6,1,3,38,49,51,36,55,104,88,6,70,40,55,97,104,51,81,50,104,53,55,98,70,113,85,83,72,81,50,6,71,83,21,52,104,99,101,22,39,4,116,39,52,18,4,22,49,98,116,20,19,120,120,69,119,35,101,
71,53,7,49,103,2,84,98,3,70,83,35,36,37,34,3,24,69,1,1,23,52,102,100,38,86,99,21,6,1,38,4,102,101,7,2,88,53,116,97,40,101,68,99,101,8,84,22,3,19,70,69,103,66,21,52,40,83,56,21,68,83,40,3,40,68,85,97,87,71,86,1,35,53,71,7,84,38,5,1,
1,38,33,115,33,34,20,113,88,68,51,17,17,116,18,55,3,37,33,8,4,117,34,22,17,85,20,84,66,53,69,104,119,85,118,53,97,20,52,85,54,84,52,98,84,4,68,54,86,52,114,120,97,72,54,52,66,35,65,71,103,36,86,113,101,70,85,56,99,4,114,35,98,50,24,34,84,67,37,120,
69,49,71,33,65,116,36,69,115,7,19,36,24,6,36,5,85,50,23,98,81,8,53,71,22,85,19,103,56,51,102,103,97,87,104,17,69,99,6,34,65,8,84,117,36,50,117,97,71,50,7,49,50,98,53,23,72,115,100,67,82,87,85,87,113,55,40,83,87,5,2,56,83,113,81,102,84,36,38,7,
34,113,82,52,33,67,23,119,20,17,66,7,39,86,34,117,5,40,116,17,23,87,21,120,51,65,39,50,50,65,18,6,56,69,88,97,17,113,81,21,84,83,88,71,83,116,37,20,69,34,97,4,85,24,52,35,98,97,34,39,55,49,20,40,19,5,114,87,19,53,69,117,51,54,8,113,6,33,20,49,
22,98,119,65,24,51,98,86,115,50,115,66,113,86,117,39,99,120,33,101,54,52,88,81,39,52,17,54,56,2,4,87,115,88,35,118,38,84,54,4,40,1,40,69,24,85,86,98,38,35,100,35,65,69,33,116,113,4,87,84,66,34,88,24,120,97,22,23,1,34,88,118,86,88,51,40,98,18,100,19,
54,100,117,8,2,88,67,3,39,72,1,100,20,55,51,36,36,2,116,102,101,116,53,115,99,118,56,4,5,100,85,1,54,36,72,36,97,87,66,119,119,18,118,23,98,118,51,97,71,4,56,7,113,115,71,2,1,68,49,102,55,99,33,56,4,119,8,53,55,98,103,117,36,19,49,56,67,87,102,103,
117,114,69,53,101,53,69,2,104,5,71,117,22,69,23,98,71,100,116,4,8,70,70,98,56,101,40,19,71,23,36,88,56,51,101,40,49,6,72,101,18,53,103,39,35,5,6,6,37,5,49,87,104,97,101,37,6,119,116,120,34,17,119,99,2,115,81,37,5,3,8,19,82,18,24,4,3,24,88,51,
22,23,4,87,34,69,97,1,117,113,98,100,54,4,55,40,56,100,84,2,20,52,98,1,117,102,19,70,116,65,102,40,120,103,3,18,56,22,72,6,19,67,116,87,56,51,22,66,82,36,81,20,55,53,97,38,101,97,66,103,85,21,22,97,71,7,68,71,71,66,5,21,83,113,54,49,82,66,99,99,
54,120,3,83,70,22,22,104,118,117,54,19,66,104,85,55,87,87,49,52,101,113,4,17,34,84,102,98,82,119,54,81,102,36,51,54,117,53,37,84,118,118,113,86,66,98,115,70,83,82,21,69,39,5,81,17,52,52,113,21,83,68,65,114,101,54,23,115,116,22,117,33,4,98,2,1,85,40,97,120,
102,49,68,71,97,120,56,21,86,99,113,82,82,56,81,85,6,102,113,5,65,1,71,81,51,5,39,67,104,35,120,37,66,1,102,87,97,17,4,7,53,6,17,54,7,101,37,83,19,5,36,52,34,2,19,35,72,52,39,72,18,103,37,1,67,71,117,3,40,115,102,40,97,85,50,86,33,97,39,65,
103,38,20,33,99,69,70,81,56,100,120,7,34,22,55,38,3,104,8,118,1,22,101,97,66,20,8,81,52,49,71,37,37,116,38,8,69,19,35,82,20,116,72,114,24,117,100,18,1,116,2,72,68,34,40,36,118,114,114,5,88,37,103,104,98,3,98,4,88,86,71,36,71,99,33,87,37,1,51,116,
20,103,5,50,81,113,20,54,103,103,56,3,55,35,56,104,18,97,1,53,51,103,97,6,38,7,115,115,85,49,53,114,104,40,1,53,88,55,81,1,49,86,36,21,87,119,120,36,119,55,20,55,84,51,2,50,97,82,69,23,120,115,1,102,20,88,56,6,3,82,85,82,4,8,17,114,103,99,21,2,
102,66,65,84,85,24,99,71,8,34,37,51,55,50,33,88,103,55,40,36,53,84,51,84,104,87,86,72,19,83,4,84,54,119,65,5,97,36,100,70,119,5,23,113,86,35,114,39,86,83,85,101,87,54,104,24,84,22,34,4,87,40,39,81,85,17,70,81,84,86,119,24,103,22,56,85,34,118,114,52,
81,120,37,54,8,98,53,103,97,114,21,39,49,3,68,33,104,120,99,40,68,54,33,66,100,99,39,53,1,86,81,101,119,71,66,2,67,21,49,70,20,85,17,102,6,85,81,88,119,36,24,6,72,5,114,115,66,84,33,99,33,24,71,85,37,23,22,23,86,113,86,22,19,55,54,82,1,84,69,3,
114,100,67,35,68,117,8,83,86,87,5,86,2,88,116,87,81,34,21,101,87,98,37,99,81,49,103,99,6,97,102,117,35,69,50,119,18,98,54,69,103,52,87,98,87,66,55,69,97,24,36,72,100,6,99,33,116,104,52,103,37,120,65,68,120,120,8,65,103,83,55,38,51,66,21,100,34,115,18,100,
70,18,39,24,102,7,5,66,84,40,103,2,71,8,8,113,100,56,56,101,68,39,5,69,21,88,20,24,3,65,65,5,67,82,40,118,24,55,51,5,5,120,1,70,33,120,53,20,7,19,70,67,117,119,85,72,69,97,3,4,22,52,85,114,50,1,83,101,65,5,7,2,55,67,102,99,34,51,66,104,
119,19,1,86,104,49,102,116,113,84,20,33,83,70,4,52,33,114,86,39,8,40,69,4,1,113,115,65,56,1,100,8,117,116,69,21,39,98,82,66,54,49,17,52,50,24,50,118,22,38,103,101,23,2,37,85,82,1,34,116,113,120,71,86,65,52,3,36,84,87,101,23,24,22,69,4,51,70,3,104,
49,71,54,88,70,1,117,39,118,38,83,114,19,86,116,104,20,81,35,53,51,72,53,7,38,49,5,86,101,36,113,113,120,86,100,101,99,250,18,215,231,65,158,84,37,52,116,52,84,40,2,98,83,117,20,6,116,68,36,35,2,40,22,101,100,120,68,54,120,113,40,87,52,85,114,3,52,1,66,84,
100,18,103,119,104,68,8,6,97,67,56,116,51,85,6,50,6,119,84,1,37,34,34,118,50,88,4,20,115,40,82,24,120,22,102,103,23,160,68,150,166,102,251,6,51,50,36,19,70,66,118,82,69,103,116,114,20,36,51,7,7,1,5,39,1,7,97,2,100,119,84,101,55,40,56,53,1,98,104,50,
113,69,49,104,36,84,7,17,54,104,120,84,39,5,114,40,56,81,1,82,88,114,117,119,22,18,36,71,83,56,21,69,100,36,17,68,56,72,251,134,150,115,250,99,23,3,113,33,33,115,99,99,116,20,99,104,54,21,118,37,2,39,53,119,114,70,7,113,65,53,70,101,120,7,88,101,4,87,55,118,
118,55,5,8,2,24,97,98,115,50,113,18,84,37,115,87,114,84,100,21,17,68,98,87,18,88,35,116,70,3,101,20,8,72,17,54,104,104,234,167,214,230,228,81,120,19,2,98,38,5,69,2,119,4,116,116,87,50,68,18,18,7,99,20,24,50,83,104,22,33,83,65,115,120,19,68,67,2,115,67,
33,56,72,84,83,39,101,69,34,36,68,37,24,82,50,97,39,116,2,37,23,50,113,115,18,99,38,118,8,118,40,120,99,97,103,52,225,39,160,151,214,66,34,54,3,100,113,53,52,118,119,114,119,40,102,103,117,51,66,3,103,81,8,7,5,21,66,114,51,24,114,68,85,72,1,37,53,52,36,21,
88,84,84,20,2,117,5,97,100,52,36,40,24,82,33,99,119,88,86,8,88,83,1,5,18,8,20,102,55,33,3,66,34,24,52,83,50,71,227,150,230,251,56,68,114,97,33,39,5,33,116,116,99,87,5,52,19,104,100,103,34,120,21,38,72,71,69,115,88,72,53,56,117,67,20,37,40,24,83,71,
72,104,71,118,114,36,119,20,83,24,88,1,54,98,71,37,51,40,120,5,115,114,115,84,7,67,51,54,68,81,115,33,6,87,87,21,86,3,250,252,231,119,3,117,87,37,83,88,83,7,65,53,56,117,6,98,19,40,71,102,85,99,6,6,84,5,104,18,118,70,8,102,20,97,5,2,4,55,36,86,
53,3,118,5,6,87,114,18,35,115,33,6,35,70,51,102,50,51,37,87,82,5,84,53,33,86,55,66,1,18,21,101,70,117,56,36,24,241,56,167,167,114,227,23,4,2,116,71,84,87,23,87,67,20,113,68,5,65,72,1,37,119,21,104,87,115,87,19,35,71,119,85,18,72,51,69,53,81,50,23,
23,2,68,21,100,101,119,39,22,88,39,84,49,3,24,39,103,68,65,2,8,33,70,70,113,4,38,5,88,52,81,66,56,104,101,8,86,101,85,151,215,34,5,247,66,70,86,5,19,72,104,19,19,81,24,17,87,54,65,4,6,20,24,24,24,114,56,85,56,21,35,4,114,19,99,118,115,4,1,22,
103,54,35,120,36,85,119,83,35,82,23,22,8,5,102,20,23,17,81,53,83,68,113,20,71,37,65,101,85,1,17,98,100,65,83,22,2,71,82,151,215,53,21,20,54,53,49,69,49,114,18,49,24,97,102,1,33,113,18,114,103,55,19,116,6,7,4,17,82,104,114,5,113,18,65,34,97,33,55,120,
68,116,103,81,65,83,39,103,35,18,113,34,55,34,2,88,82,115,22,114,7,115,1,1,2,17,36,7,66,83,21,37,81,18,81,54,87,116,3,18,87,54,66,104,100,51,3,85,247,55,82,114,84,252,84,65,56,68,53,83,65,98,55,53,114,72,8,65,4,113,21,52,71,52,115,97,20,98,17,101,
102,65,69,4,118,33,2,23,50,40,102,33,51,40,49,19,71,18,6,70,35,7,116,100,115,37,86,70,235,230,22,24,158,228,51,81,87,119,1,117,19,82,82,56,81,103,212,160,252,36,37,101,175,175,8,8,19,4,37,38,40,104,3,113,56,6,17,85,97,88,54,84,53,87,102,85,51,2,20,6,
54,50,85,69,22,71,118,70,51,38,87,65,114,72,34,68,70,81,67,23,85,20,104,98,38,120,88,100,87,53,160,38,228,247,225,68,101,97,38,114,56,18,19,53,104,52,244,87,53,54,212,68,19,56,39,40,100,19,37,87,19,36,83,67,34,18,36,3,66,87,65,51,35,102,119,51,1,81,19,38,
116,98,104,99,6,99,87,113,66,72,5,115,100,36,56,50,56,70,101,3,2,86,39,116,17,20,199,176,150,199,230,214,151,182,214,166,114,69,100,5,4,40,71,3,150,166,215,150,150,198,151,135,134,167,100,70,21,85,69,101,68,82,115,82,115,99,40,68,69,67,22,85,21,118,102,87,22,1,97,99,
52,8,72,3,23,115,50,115,81,103,87,22,33,72,68,36,7,87,33,113,55,83,24,87,120,18,167,231,231,252,231,214,244,183,182,167,21,5,17,40,20,37,51,3,231,135,231,230,199,175,195,215,135,135,37,34,54,82,52,113,101,34,49,100,40,85,113,100,71,35,55,113,38,49,117,2,6,23,33,7,
113,113,87,68,4,50,20,72,50,55,54,83,118,36,35,2,3,5,104,51,24,97,102,67,70,83,241,4,87,55,113,176,18,36,100,83,37,8,68,51,20,113,81,40,70,99,212,8,98,87,104,195,55,68,67,20,85,39,101,82,99,100,54,49,3,87,40,1,39,70,21,115,65,83,98,103,49,39,81,68,
19,102,72,18,97,113,37,85,38,118,24,100,38,49,83,23,40,81,22,21,69,7,116,38,98,102,22,3,81,69,69,83,23,116,235,37,36,38,50,85,100,102,115,20,22,241,85,88,244,252,71,53,83,33,98,56,103,38,99,8,101,87,103,20,86,85,120,36,87,23,87,17,36,56,53,39,119,22,114,65,
102,36,81,4,36,100,37,82,5,99,67,71,65,7,39,65,50,35,24,36,67,22,117,118,2,24,65,23,115,67,68,158,98,160,72,86,22,104,54,50,24,1,7,17,72,7,118,38,52,38,8,98,65,175,66,17,49,3,7,102,120,55,51,51,8,100,56,18,39,71,34,4,104,69,83,3,81,18,3,103,
83,35,120,99,97,70,6,55,51,40,53,33,22,22,100,100,113,53,99,23,114,3,67,86,56,38,49,39,23,120,99,23,86,99,83,39,70,113,54,166,183,72,87,81,18,72,23,97,99,81,86,56,18,19,115,50,24,3,68,85,50,3,21,84,21,69,120,97,116,67,87,49,113,2,51,70,103,37,52,1,
66,65,98,98,67,66,40,86,66,120,7,113,68,85,82,115,83,66,104,37,103,33,18,97,1,88,53,24,67,24,83,21,3,72,38,18,54,53,244,198,166,52,116,35,5,98,49,35,54,104,20,1,23,118,53,119,50,81,81,85,99,40,36,17,69,53,22,100,118,97,120,50,35,36,21,120,72,21,118,35,
20,65,66,4,53,7,81,35,3,17,71,18,103,120,34,115,114,4,68,86,88,71,22,65,1,97,17,81,102,55,50,33,55,117,65,85,119,65,4,214,199,176,71,36,50,8,101,8,118,37,22,38,97,22,103,56,20,68,82,66,50,120,33,37,52,70,6,38,99,97,71,68,34,5,103,38,69,35,114,97,
49,17,103,22,85,117,51,86,66,5,116,83,22,103,114,5,54,4,116,7,72,50,99,18,33,37,66,113,51,85,54,7,20,71,120,7,98,87,103,231,166,241,175,23,19,115,18,116,87,120,104,51,8,68,19,53,21,36,116,85,36,53,100,104,40,86,40,71,2,116,54,19,4,103,36,81,37,65,84,56,
23,55,37,6,7,49,3,66,37,23,70,84,70,85,102,102,20,20,34,40,72,65,66,52,33,84,99,82,69,114,21,120,99,5,116,84,212,195,33,231,215,113,68,98,6,22,119,2,104,82,40,39,1,55,86,8,102,7,3,53,3,23,21,88,35,100,120,54,50,103,51,87,70,118,1,2,102,70,2,103,
83,35,103,88,7,51,55,102,101,54,98,85,33,5,1,50,97,50,100,53,53,116,113,50,51,70,71,37,40,87,65,40,82,118,99,81,38,175,38,198,183,40,66,101,68,104,40,88,4,115,52,54,21,68,85,86,117,98,21,2,37,40,100,101,21,55,6,86,40,98,54,23,20,37,33,119,100,66,50,117,
1,54,35,3,85,71,34,100,83,98,119,65,38,68,55,66,72,6,113,65,67,66,82,86,114,7,68,70,56,97,52,36,20,118,22,18,34,241,66,230,214,97,88,7,68,117,18,3,87,69,36,115,54,33,82,23,7,1,37,18,56,51,99,81,84,22,98,39,40,104,20,68,72,104,82,53,65,49,22,116,
52,115,72,20,83,33,87,49,67,98,55,84,118,33,35,49,33,3,84,19,86,82,114,37,114,17,116,51,54,69,100,20,39,98,67,103,114,19,24,166,167,50,87,66,2,101,21,83,17,113,116,18,3,70,87,69,49,18,53,6,39,86,51,81,38,120,85,39,53,38,86,37,113,53,103,97,50,8,82,81,
70,23,56,54,65,98,19,103,115,5,68,118,17,55,34,56,67,72,50,68,39,87,98,81,116,71,54,97,116,118,104,17,67,88,55,34,56,6,86,199,241,65,69,38,116,118,114,66,102,67,87,120,65,98,82,8,71,35,116,102,3,3,36,39,88,85,97,117,81,5,37,68,24,51,98,83,35,49,35,50,
66,49,70,18,67,115,104,52,23,72,54,54,1,97,117,81,33,68,83,86,55,51,20,2,36,120,117,22,5,8,53,114,35,35,65,23,160,104,176,160,247,22,176,252,38,23,53,118,36,4,82,120,85,119,102,8,66,36,56,18,3,98,70,55,37,113,120,8,22,85,104,20,116,7,55,65,72,81,113,115,
39,71,83,71,100,39,33,20,113,1,102,3,119,5,68,86,103,104,22,114,20,88,55,81,88,87,117,22,99,71,86,34,8,99,100,244,3,103,65,69,103,21,6,86,71,101,49,51,40,99,85,116,116,56,22,53,22,35,85,72,36,51,3,35,120,117,65,49,86,54,22,21,3,70,88,69,49,117,99,39,
3,19,38,115,120,22,118,88,100,17,100,97,88,65,102,38,113,54,3,52,71,118,35,50,23,99,86,54,88,69,88,52,82,40,88,83,53,83,53,102,88,8,99,71,39,71,103,49,22,18,117,113,103,52,2,66,68,67,35,22,23,82,84,23,84,101,7,39,120,81,116,37,70,5,97,33,68,1,120,104,
24,115,36,98,38,114,104,119,2,120,87,104,40,55,18,113,20,35,82,8,100,3,86,18,118,120,72,3,65,53,24,52,51,21,88,119,33,2,6,160,85,52,38,104,117,49,52,20,50,39,114,119,115,1,34,104,85,35,3,39,37,118,104,38,33,19,98,52,54,35,5,37,100,40,116,53,87,68,98,120,
35,103,19,115,97,114,113,104,69,68,99,66,82,103,36,102,4,35,2,33,100,55,101,19,19,5,120,97,68,34,36,40,65,120,115,69,23,8,103,104,230,119,117,33,19,116,52,34,99,86,113,8,69,19,36,50,103,117,6,113,1,99,88,51,103,119,38,115,71,115,113,33,23,21,72,99,98,81,17,49,
21,7,104,85,100,1,53,113,17,118,68,17,115,5,7,18,72,71,24,97,23,19,55,20,97,82,40,71,23,87,103,66,85,70,101,39,2,84,99,55,40,53,21,101,101,23,98,4,71,55,86,53,69,39,104,102,67,35,100,55,21,85,19,101,53,88,84,8,71,20,4,68,37,21,23,56,103,84,5,102,
86,33,87,68,114,23,103,84,53,54,72,87,38,102,117,23,39,115,8,113,2,87,49,34,40,118,52,22,117,6,99,2,97,2,83,3,5,36,70,24,24,4,114,98,97,102,36,84,34,65,37,39,97,114,117,65,56,19,3,36,87,54,97,1,82,104,35,54,17,33,23,99,99,85,68,55,113,54,20,102,
65,97,6,5,17,37,70,103,84,21,119,97,23,34,18,69,97,4,34,87,40,66,102,33,117,35,22,1,55,102,24,102,116,56,84,40,65,118,54,7,120,68,21,101,103,98,5,6,54,69,1,81,120,5,40,85,53,39,53,66,20,68,114,38,102,113,118,85,8,71,3,5,114,39,84,33,113,114,18,68,
53,49,83,34,67,5,34,100,23,71,66,102,21,72,84,18,71,56,71,19,53,33,3,72,2,104,102,3,6,66,38,83,98,38,24,99,4,34,118,101,114,21,103,99,18,1,17,97,85,51,3,38,51,81,82,87,67,99,84,38,34,18,49,24,117,116,84,53,8,36,33,103,103,5,70,70,40,40,38,99,
117,86,67,67,97,33,21,66,8,7,54,51,54,119,21,22,34,7,97,20,83,100,68,7,17,5,39,6,55,21,99,103,83,100,85,19,100,100,4,38,55,33,17,18,35,7,18,19,40,81,113,104,18,117,52,55,72,22,37,70,104,4,67,55,37,49,18,34,81,103,22,70,81,8,81,101,53,1,38,5,
21,52,23,19,5,88,8,2,53,119,51,19,115,38,84,103,72,56,118,71,2,102,38,39,8,18,66,23,72,55,68,115,18,54,69,115,113,51,83,69,120,99,84,65,54,37,1,35,114,65,82,54,4,53,100,81,38,55,56,72,4,71,118,115,81,37,116,52,67,72,7,102,24,38,116,88,5,19,83,82,
6,2,38,2,22,72,87,119,54,24,115,71,120,119,99,101,24,17,2,113,8,20,23,71,1,39,37,52,37,3,81,69,68,115,36,120,104,3,82,24,101,39,55,18,23,52,103,100,69,17,50,88,101,17,97,81,18,50,71,104,19,101,84,115,72,68,118,114,56,116,72,3,117,86,49,119,3,8,102,39,
1,65,3,117,7,100,20,99,53,56,100,24,119,33,120,36,34,8,69,51,37,37,82,81,84,19,113,67,81,50,70,70,36,19,35,97,83,98,101,114,85,33,22,101,19,66,52,87,65,113,53,99,68,7,18,7,84,103,86,86,37,69,71,68,49,85,3,102,22,49,49,81,20,66,69,68,5,23,17,35,
98,21,85,67,114,22,40,2,113,3,52,33,120,2,100,2,34,82,21,56,36,85,17,50,33,22,49,4,8,8,98,71,50,34,39,104,102,39,68,97,104,118,103,53,1,49,2,4,20,24,8,86,71,102,51,68,37,33,98,56,6,113,116,88,50,19,1,19,35,33,70,117,6,51,113,84,66,37,114,103,
114,65,114,115,68,52,52,22,70,36,1,49,102,54,86,36,18,67,101,6,36,103,21,117,69,117,52,117,34,67,118,114,100,100,36,114,50,68,104,116,86,68,103,18,117,66,52,114,99,8,36,71,72,51,71,65,24,119,100,114,115,84,83,56,67,54,98,87,36,118,114,20,21,101,104,22,85,40,34,3,
3,83,8,34,40,97,103,3,56,100,72,1,34,36,23,52,99,50,99,5,85,68,40,55,37,99,4,100,98,35,116,83,68,39,39,115,52,6,5,66,98,17,67,18,38,97,116,103,53,21,101,53,4,84,114,49,86,33,35,8,67,83,1,100,101,24,19,19,69,70,8,113,55,65,115,83,7,102,97,120,
101,82,40,20,87,118,54,23,119,50,113,22,65,82,101,33,4,103,51,83,71,117,8,71,100,39,118,2,49,22,8,24,83,18,38,17,24,67,83,35,120,23,114,115,72,7,17,83,50,19,65,6,23,113,56,117,103,103,83,55,66,70,51,52,17,39,86,72,22,23,65,55,88,3,51,18,103,19,65,113,
72,8,103,113,18,98,84,56,66,24,71,19,68,7,101,66,113,50,66,85,99,3,86,97,2,85,99,39,70,81,56,22,36,33,88,33,34,115,120,2,50,117,102,39,114,22,52,81,68,99,69,8,22,114,113,98,100,1,67,81,4,104,71,37,69,85,19,5,81,56,69,7,67,51,22,3,117,86,68,86,
56,53,71,35,98,115,68,120,37,84,39,88,88,71,69,53,66,40,52,37,66,33,7,24,6,19,102,53,98,116,120,88,102,98,34,5,19,3,71,82,99,4,117,72,3,69,67,104,40,100,81,40,118,65,50,100,52,97,20,117,100,87,103,54,69,20,49,2,40,104,2,36,1,65,68,3,23,34,88,82,
35,116,98,70,99,20,104,70,82,100,3,97,21,3,84,113,19,114,21,115,34,37,5,40,115,115,104,49,84,22,39,100,4,88,71,67,56,85,18,6,39,4,120,8,85,1,87,8,66,52,83,116,99,83,51,7,119,66,69,115,118,18,69,72,37,87,34,37,35,72,88,119,35,18,53,81,56,104,49,21,
54,99,52,67,97,4,18,101,87,35,68,5,119,97,51,52,87,34,85,97,37,3,35,40,104,72,65,86,85,113,104,3,102,51,33,87,17,114,50,69,116,53,87,49,4,17,23,86,97,3,54,39,17,69,51,38,17,113,19,104,69,35,116,81,38,71,117,24,50,39,81,81,17,24,86,98,35,69,8,3,
69,21,97,71,119,116,1,116,97,8,8,98,19,37,113,118,102,98,2,19,19,20,50,87,37,120,38,116,7,19,2,81,69,99,120,39,33,104,38,71,87,117,6,104,100,3,69,21,6,52,23,33,24,84,117,20,5,71,120,97,66,4,1,103,88,100,115,103,66,18,34,97,69,85,49,115,104,55,98,3,
116,119,102,18,56,1,20,65,35,101,36,2,1,50,113,51,3,82,40,69,114,83,18,70,115,7,65,113,65,67,49,67,113,117,82,120,118,38,34,119,40,49,118,97,65,84,3,34,35,33,120,70,38,52,88,119,67,99,7,88,82,18,72,54,51,97,97,24,97,37,34,118,54,17,82,119,40,22,3,23,
38,49,104,69,83,20,21,66,3,99,68,116,72,70,38,3,118,23,97,98,119,71,8,20,55,5,68,36,71,103,38,18,23,97,116,99,103,87,51,56,72,24,82,82,81,20,86,51,117,20,33,38,20,100,117,71,37,81,67,83,115,19,86,100,53,20,67,100,20,38,56,68,3,66,40,104,38,36,104,114,
114,21,104,114,88,33,99,116,72,84,4,7,87,6,1,22,84,118,70,50,118,34,6,87,7,7,39,119,3,85,120,8,5,115,38,50,85,54,54,68,20,53,17,65,37,40,69,115,19,3,33,116,70,103,36,5,17,21,5,34,82,104,99,65,19,70,23,66,82,100,7,98,19,6,38,38,17,38,97,22,
40,85,119,19,97,113,102,36,70,66,38,67,82,3,4,65,68,84,40,6,113,2,23,4,98,20,83,117,67,52,22,69,7,97,117,22,33,117,4,55,2,85,120,6,71,113,100,118,33,69,103,21,56,70,22,86,87,86,82,116,120,117,56,118,56,101,102,55,70,33,81,114,20,19,18,65,117,33,19,39,
5,82,68,33,82,7,117,40,87,49,56,81,101,54,68,5,119,65,71,81,119,85,117,103,1,117,52,17,98,103,68,53,50,72,22,36,51,115,119,115,51,7,17,88,66,70,71,36,56,117,120,56,84,83,82,67,24,68,66,104,114,69,83,19,81,8,118,33,1,39,8,3,17,72,23,85,33,40,17,100
</data>
 </layer>
 <layer id="4" name="walls" width="80" height="80">
  <data encoding="csv">
0,0,0,0,0,0,0,0,0,0,0,0,0,0,0,0,0,0,0,0,0,0,0,0,0,0,0,0,0,0,0,0,0,0,0,0,0,0,0,0,0,0,0,0,0,0,0,0,0,0,0,0,0,0,0,0,0,0,0,0,0,0,0,0,0,0,0,0,0,0,0,0,0,0,0,0,0,0,0,0,
0,0,0,0,0,0,0,0,0,0,0,0,0,0,0,0,0,0,0,0,0,0,0,0,0,0,0,0,0,0,0,0,0,0,0,0,0,0,0,0,0,0,0,0,0,0,0,0,0,0,0,0,0,0,0,0,0,0,0,0,0,0,0,0,0,0,0,0,0,0,0,0,0,0,0,0,0,0,0,0,
0,0,0,0,0,0,0,0,0,0,0,0,0,0,0,0,0,0,0,0,0,0,0,0,0,0,0,0,0,0,0,0,0,0,0,0,0,0,0,0,0,0,0,0,0,0,0,0,0,0,0,0,0,0,0,0,0,0,0,0,0,0,0,0,0,0,0,0,0,0,0,0,0,0,0,0,0,0,0,0,
0,0,0,0,0,0,0,0,0,0,0,0,0,0,0,0,0,0,0,0,0,0,0,0,0,0,0,0,0,0,0,0,0,0,0,0,0,0,0,0,0,0,0,0,0,0,0,0,0,0,0,0,0,0,0,0,0,0,0,0,0,0,0,0,0,0,0,0,0,0,0,0,0,0,0,0,0,0,0,0,
0,0,0,0,0,0,0,0,0,0,0,0,0,0,0,0,0,0,0,0,0,0,0,0,0,0,0,0,0,0,0,0,0,0,0,0,0,0,0,0,0,0,0,0,0,0,0,0,0,0,0,0,0,0,0,0,0,0,0,0,0,0,0,0,0,0,0,0,0,0,0,0,0,0,0,0,0,0,0,0,
0,0,0,0,0,0,0,0,0,0,0,0,0,0,0,0,0,0,0,0,0,0,0,0,0,0,0,0,0,0,0,0,0,0,0,0,0,0,0,0,0,0,0,0,0,0,0,0,0,0,0,0,0,0,0,0,0,0,0,0,0,0,0,0,0,0,0,0,0,0,0,0,0,0,0,0,0,0,0,0,
0,0,0,0,0,0,0,0,0,0,0,0,0,0,0,0,0,0,0,0,0,0,0,0,0,0,0,0,0,0,0,0,0,0,0,0,0,0,0,0,0,0,0,0,0,0,0,0,0,0,0,0,0,0,0,0,0,0,0,0,0,0,0,0,0,0,0,0,0,0,0,0,0,0,0,0,0,0,0,0,
0,0,0,0,0,0,0,0,0,0,0,0,0,0,0,0,0,0,0,0,0,0,0,0,0,0,0,0,0,0,0,0,0,0,0,0,0,0,0,0,0,0,0,0,0,0,0,0,0,0,0,0,0,0,0,0,0,0,0,0,0,0,0,0,0,0,0,0,0,0,0,0,0,0,0,0,0,0,0,0,
0,0,0,0,0,0,0,0,0,0,0,0,0,0,0,0,0,0,0,0,0,0,0,0,0,0,0,0,0,0,0,0,0,0,0,0,0,0,0,0,0,0,0,0,0,0,0,0,0,0,0,0,0,0,0,0,0,0,0,0,0,0,0,0,0,0,0,0,0,0,0,0,0,0,0,0,0,0,0,0,
0,0,0,0,0,0,0,0,0,0,0,0,0,0,0,0,0,0,0,0,0,0,0,0,0,0,0,0,0,0,0,0,0,0,0,0,0,0,0,0,0,0,0,0,0,0,0,0,0,0,0,0,0,0,0,0,0,0,0,0,0,0,0,0,0,0,0,0,0,0,0,0,0,0,0,0,0,0,0,0,
0,0,0,0,0,0,0,0,0,0,0,0,0,0,0,0,0,0,0,0,0,0,0,0,0,0,0,0,0,0,0,0,0,0,0,0,0,0,0,0,0,0,0,0,0,0,0,0,0,0,0,0,0,0,0,0,0,0,0,0,0,0,0,0,0,0,0,0,0,0,0,0,0,0,0,0,0,0,0,0,
0,0,0,0,0,0,0,0,0,0,0,0,0,0,0,0,0,0,0,0,0,0,0,0,0,0,0,0,0,0,0,0,0,0,0,0,0,0,0,0,0,0,0,0,0,0,0,0,0,0,0,0,0,0,0,0,0,0,0,0,0,0,0,0,0,0,0,0,0,0,0,0,0,0,0,0,0,0,0,0,
0,0,0,0,0,0,0,0,0,0,0,0,0,0,0,0,0,0,0,0,0,0,0,0,0,0,0,0,0,0,0,0,0,0,0,0,0,0,0,0,0,0,0,0,0,0,0,0,0,0,0,0,0,0,0,0,0,0,0,0,0,0,0,0,0,0,0,0,0,0,0,0,0,0,0,0,0,0,0,0,
0,0,0,0,0,0,0,0,0,0,0,0,0,0,0,0,0,0,0,0,0,0,0,0,0,0,0,0,0,0,0,0,0,0,0,0,0,0,0,0,0,0,0,0,0,0,0,0,0,0,0,0,0,0,0,0,0,0,0,0,0,0,0,0,0,0,0,0,0,0,0,0,0,0,0,0,0,0,0,0,
0,0,0,0,0,0,0,0,0,0,0,0,0,0,0,0,0,0,0,0,0,0,0,0,0,0,0,0,0,0,0,0,0,0,0,0,0,0,0,0,0,0,0,0,0,0,0,0,0,0,0,0,0,0,0,0,0,0,0,0,0,0,0,0,0,0,0,0,0,0,0,0,0,0,0,0,0,0,0,0,
0,0,0,0,0,0,0,0,0,0,0,0,0,0,0,0,0,0,0,0,0,0,0,0,0,0,0,0,0,0,0,0,0,0,0,0,0,0,0,0,0,0,0,0,0,0,0,0,0,0,0,0,0,0,0,0,0,0,0,0,0,0,0,0,0,0,0,0,0,0,0,0,0,0,0,0,0,0,0,0,
0,0,0,0,0,0,0,0,0,0,0,0,0,0,0,0,0,0,0,0,0,0,0,0,0,0,0,0,0,0,0,0,0,0,0,0,0,0,0,0,0,0,0,0,0,0,0,0,0,0,0,0,0,0,0,0,0,0,0,0,0,0,0,0,0,0,0,0,0,0,0,0,0,0,0,0,0,0,0,0,
0,0,0,0,0,0,0,0,0,0,0,0,0,0,0,0,0,0,0,0,0,0,0,0,0,0,0,0,0,0,0,0,0,0,0,0,0,0,0,0,0,0,0,0,0,0,0,0,0,0,0,0,0,0,0,0,0,0,0,0,0,0,0,0,0,0,0,0,0,0,0,0,0,0,0,0,0,0,0,0,
0,0,0,0,0,0,0,0,0,0,0,0,0,0,0,0,0,0,0,0,0,0,0,0,0,0,0,0,0,0,0,0,0,0,0,0,0,0,0,0,0,0,0,0,0,0,0,0,0,0,0,0,0,0,0,0,0,0,0,0,0,0,0,0,0,0,0,0,0,0,0,0,0,0,0,0,0,0,0,0,
0,0,0,0,0,0,0,0,0,0,0,0,0,0,0,0,0,0,0,0,0,0,0,0,0,0,0,0,0,0,0,0,0,0,0,0,0,0,0,0,0,0,0,0,0,0,0,0,0,0,0,0,0,0,0,0,0,0,0,0,0,0,0,0,0,0,0,0,0,0,0,0,0,0,0,0,0,0,0,0,
0,0,0,0,0,0,0,0,0,0,0,0,0,0,0,0,0,0,0,0,0,0,0,0,0,0,0,0,0,0,0,0,0,0,0,0,0,0,0,0,0,0,0,0,0,0,0,0,0,0,0,0,0,0,0,0,0,0,0,0,0,0,0,0,0,0,0,0,0,0,0,0,0,0,0,0,0,0,0,0,
0,0,0,0,0,0,0,0,0,0,0,0,0,0,0,0,0,0,0,0,0,0,0,0,0,0,0,0,0,0,0,0,0,0,0,0,0,0,0,0,0,0,0,0,0,0,0,0,0,0,0,0,0,0,0,0,0,0,0,0,0,0,0,0,0,0,0,0,0,0,0,0,0,0,0,0,0,0,0,0,
0,0,0,0,0,0,0,0,0,0,0,0,0,0,0,0,0,0,0,0,0,0,0,0,0,0,0,0,0,0,0,0,0,0,0,0,0,0,0,0,0,0,0,0,0,0,0,0,0,0,0,0,0,0,0,0,0,0,0,0,0,0,0,0,0,0,0,0,0,0,0,0,0,0,0,0,0,0,0,0,
0,0,0,0,0,0,0,0,0,0,0,0,0,0,0,0,0,0,0,0,0,0,0,0,0,0,0,0,0,0,0,0,0,0,0,0,0,0,0,0,0,0,0,0,0,0,0,0,0,0,0,0,0,0,0,0,0,0,0,0,0,0,0,0,0,0,0,0,0,0,0,0,0,0,0,0,0,0,0,0,
0,0,0,0,0,0,0,0,0,0,0,0,0,0,0,0,0,0,0,0,0,0,0,0,0,0,0,0,0,0,0,0,0,0,0,0,0,0,0,0,0,0,0,0,0,0,0,0,0,0,0,0,0,0,0,0,0,0,0,0,0,0,0,0,0,0,0,0,0,0,0,0,0,0,0,0,0,0,0,0,
0,0,0,0,0,0,0,0,0,0,0,0,0,0,0,0,0,0,0,0,0,0,0,0,0,0,0,0,0,0,0,0,0,0,0,0,0,0,0,0,0,0,0,0,0,0,0,0,0,0,0,0,0,0,0,0,0,0,0,0,0,0,0,0,0,0,0,0,0,0,0,0,0,0,0,0,0,0,0,0,
0,0,0,0,0,0,0,0,0,0,0,0,0,0,0,0,0,0,0,0,0,0,0,0,0,0,0,0,0,0,0,0,0,0,0,0,0,0,0,0,0,0,0,0,0,0,0,0,0,0,0,0,0,0,0,0,0,0,0,0,0,0,0,0,0,0,0,0,0,0,0,0,0,0,0,0,0,0,0,0,
0,0,0,0,0,0,0,0,0,0,0,0,0,0,0,0,0,0,0,0,0,0,0,0,0,0,0,0,0,0,0,0,0,0,0,0,0,0,0,0,0,0,0,0,0,0,0,0,0,0,0,0,0,0,0,0,0,0,0,0,0,0,0,0,0,0,0,0,0,0,0,0,0,0,0,0,0,0,0,0,
0,0,0,0,0,0,0,0,0,0,0,0,0,0,0,0,0,0,0,0,0,0,0,0,0,0,0,0,0,0,0,0,0,0,0,0,0,0,0,0,0,0,0,0,0,0,0,0,0,0,0,0,0,0,0,0,0,0,0,0,0,0,0,0,0,0,0,0,0,0,0,0,0,0,0,0,0,0,0,0,
0,0,0,0,0,0,0,0,0,0,0,0,0,0,0,0,0,0,0,0,0,0,0,0,0,0,0,0,0,0,0,0,0,0,0,0,0,0,0,0,0,0,0,0,0,0,0,0,0,0,0,0,0,0,0,0,0,0,0,0,0,0,0,0,0,0,0,0,0,0,0,0,0,0,0,0,0,0,0,0,
0,0,0,0,0,0,0,0,0,0,0,0,0,0,0,0,0,0,0,0,0,0,0,0,0,0,0,0,0,0,0,0,0,0,0,0,0,0,0,0,0,0,0,0,0,0,0,0,0,0,0,0,0,0,0,0,0,0,0,0,0,0,0,0,0,0,0,0,0,0,0,0,0,0,0,0,0,0,0,0,
0,0,0,0,0,0,0,0,0,0,0,0,0,0,0,0,0,0,0,0,0,0,0,0,0,0,0,0,0,0,0,0,0,0,0,0,0,0,0,0,0,0,0,0,0,0,0,0,0,0,0,0,0,0,0,0,0,0,0,0,0,0,0,0,0,0,0,0,0,0,0,0,0,0,0,0,0,0,0,0,
0,0,0,0,0,0,0,0,0,0,0,0,0,0,0,0,0,0,0,0,0,0,0,0,0,0,0,0,0,0,0,0,0,0,0,0,0,0,0,0,0,0,0,0,0,0,0,0,0,0,0,0,0,0,0,0,0,0,0,0,0,0,0,0,0,0,0,0,0,0,0,0,0,0,0,0,0,0,0,0,
0,0,0,0,0,0,0,0,0,0,0,0,0,0,0,0,0,0,0,0,0,0,0,0,0,0,0,0,0,0,0,0,0,0,0,0,0,0,0,0,0,0,0,0,0,0,0,0,0,0,0,0,0,0,0,0,0,0,0,0,0,0,0,0,0,0,0,0,0,0,0,0,0,0,0,0,0,0,0,0,
0,0,0,0,0,0,0,0,0,0,0,0,0,0,0,0,0,0,0,0,0,0,0,0,0,0,0,0,0,0,0,0,0,0,0,0,0,0,0,0,0,0,0,0,0,0,0,0,0,0,0,0,0,0,0,0,0,0,0,0,0,0,0,0,0,0,0,0,0,0,0,0,0,0,0,0,0,0,0,0,
0,0,0,0,0,0,0,0,0,0,0,0,0,0,0,0,0,0,0,0,0,0,0,0,0,0,0,0,0,0,0,0,0,0,0,0,0,0,0,0,0,0,0,0,0,0,0,0,0,0,0,0,0,0,0,0,0,0,0,0,0,0,0,0,0,0,0,0,0,0,0,0,0,0,0,0,0,0,0,0,
0,0,0,0,0,0,0,0,0,0,0,0,0,0,0,0,0,0,0,0,0,0,0,0,0,0,0,0,0,0,0,0,0,0,0,0,0,0,0,0,0,0,0,0,0,0,0,0,0,0,0,0,0,0,0,0,0,0,0,0,0,0,0,0,0,0,0,0,0,0,0,0,0,0,0,0,0,0,0,0,
0,0,0,0,0,0,0,0,0,0,0,0,0,0,0,0,0,0,0,0,0,0,0,0,0,0,0,0,0,0,0,0,0,0,0,0,0,0,0,0,0,0,0,0,0,0,0,0,0,0,0,0,0,0,0,0,0,0,0,0,0,0,0,0,0,0,0,0,0,0,0,0,0,0,0,0,0,0,0,0,
0,0,0,0,0,0,0,0,0,0,0,0,0,0,0,0,0,0,0,0,0,0,0,0,0,0,0,0,0,0,0,0,0,0,0,0,0,0,0,0,0,0,0,0,0,0,0,0,0,0,0,0,0,0,0,0,0,0,0,0,0,0,0,0,0,0,0,0,0,0,0,0,0,0,0,0,0,0,0,0,
0,0,0,0,0,0,0,0,0,0,0,0,0,0,0,0,0,0,0,0,0,0,0,0,0,0,0,0,0,0,0,0,0,0,0,0,0,0,0,0,0,0,0,0,0,0,0,0,0,0,0,0,0,0,0,0,0,0,0,0,0,0,0,0,0,0,0,0,0,0,0,0,0,0,0,0,0,0,0,0,
0,0,0,0,0,0,0,0,0,0,0,0,0,0,0,0,0,0,0,0,0,0,0,0,0,0,0,0,0,0,0,0,0,0,0,0,0,0,0,0,0,0,0,0,0,0,0,0,0,0,0,0,0,0,0,0,0,0,0,0,0,0,0,0,0,0,0,0,0,0,0,0,0,0,0,0,0,0,0,0,
0,0,0,0,0,0,0,0,0,0,0,0,0,0,0,0,0,0,0,0,0,0,0,0,0,0,0,0,0,0,0,0,0,0,0,0,0,0,0,0,0,0,0,0,0,0,0,0,0,0,0,0,0,0,0,0,0,0,0,0,0,0,0,0,0,0,0,0,0,0,0,0,0,0,0,0,0,0,0,0,
0,0,0,0,0,0,0,0,0,0,0,0,0,0,0,0,0,0,0,0,0,0,0,0,0,0,0,0,0,0,0,0,0,0,0,0,0,0,0,0,0,0,0,0,0,0,0,0,0,0,0,0,0,0,0,0,0,0,0,0,0,0,0,0,0,0,0,0,0,0,0,0,0,0,0,0,0,0,0,0,
0,0,0,0,0,0,0,0,0,0,0,0,0,0,0,0,0,0,0,0,0,0,0,0,0,0,0,0,0,0,0,0,0,0,0,0,0,0,0,0,0,0,0,0,0,0,0,0,0,0,0,0,0,0,0,0,0,0,0,0,0,0,0,0,0,0,0,0,0,0,0,0,0,0,0,0,0,0,0,0,
0,0,0,0,0,0,0,0,0,0,0,0,0,0,0,0,0,0,0,0,0,0,0,0,0,0,0,0,0,0,0,0,0,0,0,0,0,0,0,0,0,0,0,0,0,0,0,0,0,0,0,0,0,0,0,0,0,0,0,0,0,0,0,0,0,0,0,0,0,0,0,0,0,0,0,0,0,0,0,0,
0,0,0,0,0,0,0,0,0,0,0,0,0,0,0,0,0,0,0,0,0,0,0,0,0,0,0,0,0,0,0,0,0,0,0,0,0,0,0,0,0,0,0,0,0,0,0,0,0,0,0,0,0,0,0,0,0,0,0,0,0,0,0,0,0,0,0,0,0,0,0,0,0,0,0,0,0,0,0,0,
0,0,0,0,0,0,0,0,0,0,0,0,0,0,0,0,0,0,0,0,0,0,0,0,0,0,0,0,0,0,0,0,0,0,0,0,0,0,0,0,0,0,0,0,0,0,0,0,0,0,0,0,0,0,0,0,0,0,0,0,0,0,0,0,0,0,0,0,0,0,0,0,0,0,0,0,0,0,0,0,
0,0,0,0,0,0,0,0,0,0,0,0,0,0,0,0,0,0,0,0,0,0,0,0,0,0,0,0,0,0,0,0,0,0,0,0,0,0,0,0,0,0,0,0,0,0,0,0,0,0,0,0,0,0,0,0,0,0,0,0,0,0,0,0,0,0,0,0,0,0,0,0,0,0,0,0,0,0,0,0,
0,0,0,0,0,0,0,0,0,0,0,0,0,0,0,0,0,0,0,0,0,0,0,0,0,0,0,0,0,0,0,0,0,0,0,0,0,0,0,0,0,0,0,0,0,0,0,0,0,0,0,0,0,0,0,0,0,0,0,0,0,0,0,0,0,0,0,0,0,0,0,0,0,0,0,0,0,0,0,0,
0,0,0,0,0,0,0,0,0,0,0,0,0,0,0,0,0,0,0,0,0,0,0,0,0,0,0,0,0,0,0,0,0,0,0,0,0,0,0,0,0,0,0,0,0,0,0,0,0,0,0,0,0,0,0,0,0,0,0,0,0,0,0,0,0,0,0,0,0,0,0,0,0,0,0,0,0,0,0,0,
0,0,0,0,0,0,0,0,0,0,0,0,0,0,0,0,0,0,0,0,0,0,0,0,0,0,0,0,0,0,0,0,0,0,0,0,0,0,0,0,0,0,0,0,0,0,0,0,0,0,0,0,0,0,0,0,0,0,0,0,0,0,0,0,0,0,0,0,0,0,0,0,0,0,0,0,0,0,0,0,
0,0,0,0,0,0,0,0,0,0,0,0,0,0,0,0,0,0,0,0,0,0,0,0,0,0,0,0,0,0,0,0,0,0,0,0,0,0,0,0,0,0,0,0,0,0,0,0,0,0,0,0,0,0,0,0,0,0,0,0,0,0,0,0,0,0,0,0,0,0,0,0,0,0,0,0,0,0,0,0,
0,0,0,0,0,0,0,0,0,0,0,0,0,0,0,0,0,0,0,0,0,0,0,0,0,0,0,0,0,0,0,0,0,0,0,0,0,0,0,0,0,0,0,0,0,0,0,0,0,0,0,0,0,0,0,0,0,0,0,0,0,0,0,0,0,0,0,0,0,0,0,0,0,0,0,0,0,0,0,0,
0,0,0,0,0,0,0,0,0,0,0,0,0,0,0,0,0,0,0,0,0,0,0,0,0,0,0,0,0,0,0,0,0,0,0,0,0,0,0,0,0,0,0,0,0,0,0,0,0,0,0,0,0,0,0,0,0,0,0,0,0,0,0,0,0,0,0,0,0,0,0,0,0,0,0,0,0,0,0,0,
0,0,0,0,0,0,0,0,0,0,0,0,0,0,0,0,0,0,0,0,0,0,0,0,0,0,0,0,0,0,0,0,0,0,0,0,0,0,0,0,0,0,0,0,0,0,0,0,0,0,0,0,0,0,0,0,0,0,0,0,0,0,0,0,0,0,0,0,0,0,0,0,0,0,0,0,0,0,0,0,
0,0,0,0,0,0,0,0,0,0,0,0,0,0,0,0,0,0,0,0,0,0,0,0,0,0,0,0,0,0,0,0,0,0,0,0,0,0,0,0,0,0,0,0,0,0,0,0,0,0,0,0,0,0,0,0,0,0,0,0,0,0,0,0,0,0,0,0,0,0,0,0,0,0,0,0,0,0,0,0,
0,0,0,0,0,0,0,0,0,0,0,0,0,0,0,0,0,0,0,0,0,0,0,0,0,0,0,0,0,0,0,0,0,0,0,0,0,0,0,0,0,0,0,0,0,0,0,0,0,0,0,0,0,0,0,0,0,0,0,0,0,0,0,0,0,0,0,0,0,0,0,0,0,0,0,0,0,0,0,0,
0,0,0,0,0,0,0,0,0,0,0,0,0,0,0,0,0,0,0,0,0,0,0,0,0,0,0,0,0,0,0,0,0,0,0,0,0,0,0,0,0,0,0,0,0,0,0,0,0,0,0,0,0,0,0,0,0,0,0,0,0,0,0,0,0,0,0,0,0,0,0,0,0,0,0,0,0,0,0,0,
0,0,0,0,0,0,0,0,0,0,0,0,0,0,0,0,0,0,0,0,0,0,0,0,0,0,0,0,0,0,0,0,0,0,0,0,0,0,0,0,0,0,0,0,0,0,0,0,0,0,0,0,0,0,0,0,0,0,0,0,0,0,0,0,0,0,0,0,0,0,0,0,0,0,0,0,0,0,0,0,
0,0,0,0,0,0,0,0,0,0,0,0,0,0,0,0,0,0,0,0,0,0,0,0,0,0,0,0,0,0,0,0,0,0,0,0,0,0,0,0,0,0,0,0,0,0,0,0,0,0,0,0,0,0,0,0,0,0,0,0,0,0,0,0,0,0,0,0,0,0,0,0,0,0,0,0,0,0,0,0,
0,0,0,0,0,0,0,0,0,0,0,0,0,0,0,0,0,0,0,0,0,0,0,0,0,0,0,0,0,0,0,0,0,0,0,0,0,0,0,0,0,0,0,0,0,0,0,0,0,0,0,0,0,0,0,0,0,0,0,0,0,0,0,0,0,0,0,0,0,0,0,0,0,0,0,0,0,0,0,0,
0,0,0,0,0,0,0,0,0,0,0,0,0,0,0,0,0,0,0,0,0,0,0,0,0,0,0,0,0,0,0,0,0,0,0,0,0,0,0,0,0,0,0,0,0,0,0,0,0,0,0,0,0,0,0,0,0,0,0,0,0,0,0,0,0,0,0,0,0,0,0,0,0,0,0,0,0,0,0,0,
0,0,0,0,0,0,0,0,0,0,0,0,0,0,0,0,0,0,0,0,0,0,0,0,0,0,0,0,0,0,0,0,0,0,0,0,0,0,0,0,0,0,0,0,0,0,0,0,0,0,0,0,0,0,0,0,0,0,0,0,0,0,0,0,0,0,0,0,0,0,0,0,0,0,0,0,0,0,0,0,
0,0,0,0,0,0,0,0,0,0,0,0,0,0,0,0,0,0,0,0,0,0,0,0,0,0,0,0,0,0,0,0,0,0,0,0,0,0,0,0,0,0,0,0,0,0,0,0,0,0,0,0,0,0,0,0,0,0,0,0,0,0,0,0,0,0,0,0,0,0,0,0,0,0,0,0,0,0,0,0,
0,0,0,0,0,0,0,0,0,0,0,0,0,0,0,0,0,0,0,0,0,0,0,0,0,0,0,0,0,0,0,0,0,0,0,0,0,0,0,0,0,0,0,0,0,0,0,0,0,0,0,0,0,0,0,0,0,0,0,0,0,0,0,0,0,0,0,0,0,0,0,0,0,0,0,0,0,0,0,0,
0,0,0,0,0,0,0,0,0,0,0,0,0,0,0,0,0,0,0,0,0,0,0,0,0,0,0,0,0,0,0,0,0,0,0,0,0,0,0,0,0,0,0,0,0,0,0,0,0,0,0,0,0,0,0,0,0,0,0,0,0,0,0,0,0,0,0,0,0,0,0,0,0,0,0,0,0,0,0,0,
0,0,0,0,0,0,0,0,0,0,0,0,0,0,0,0,0,0,0,0,0,0,0,0,0,0,0,0,0,0,0,0,0,0,0,0,0,0,0,0,0,0,0,0,0,0,0,0,0,0,0,0,0,0,0,0,0,0,0,0,0,0,0,0,0,0,0,0,0,0,0,0,0,0,0,0,0,0,0,0,
0,0,0,0,0,0,0,0,0,0,0,0,0,0,0,0,0,0,0,0,0,0,0,0,0,0,0,0,0,0,0,0,0,0,0,0,0,0,0,0,0,0,0,0,0,0,0,0,0,0,0,0,0,0,0,0,0,0,0,0,0,0,0,0,0,0,0,0,0,0,0,0,0,0,0,0,0,0,0,0,
0,0,0,0,0,0,0,0,0,0,0,0,0,0,0,0,0,0,0,0,0,0,0,0,0,0,0,0,0,0,0,0,0,0,0,0,0,0,0,0,0,0,0,0,0,0,0,0,0,0,0,0,0,0,0,0,0,0,0,0,0,0,0,0,0,0,0,0,0,0,0,0,0,0,0,0,0,0,0,0,
0,0,0,0,0,0,0,0,0,0,0,0,0,0,0,0,0,0,0,0,0,0,0,0,0,0,0,0,0,0,0,0,0,0,0,0,0,0,0,0,0,0,0,0,0,0,0,0,0,0,0,0,0,0,0,0,0,0,0,0,0,0,0,0,0,0,0,0,0,0,0,0,0,0,0,0,0,0,0,0,
0,0,0,0,0,0,0,0,0,0,0,0,0,0,0,0,0,0,0,0,0,0,0,0,0,0,0,0,0,0,0,0,0,0,0,0,0,0,0,0,0,0,0,0,0,0,0,0,0,0,0,0,0,0,0,0,0,0,0,0,0,0,0,0,0,0,0,0,0,0,0,0,0,0,0,0,0,0,0,0,
0,0,0,0,0,0,0,0,0,0,0,0,0,0,0,0,0,0,0,0,0,0,0,0,0,0,0,0,0,0,0,0,0,0,0,0,0,0,0,0,0,0,0,0,0,0,0,0,0,0,0,0,0,0,0,0,0,0,0,0,0,0,0,0,0,0,0,0,0,0,0,0,0,0,0,0,0,0,0,0,
0,0,0,0,0,0,0,0,0,0,0,0,0,0,0,0,0,0,0,0,0,0,0,0,0,0,0,0,0,0,0,0,0,0,0,0,0,0,0,0,0,0,0,0,0,0,0,0,0,0,0,0,0,0,0,0,0,0,0,0,0,0,0,0,0,0,0,0,0,0,0,0,0,0,0,0,0,0,0,0,
0,0,0,0,0,0,0,0,0,0,0,0,0,0,0,0,0,0,0,0,0,0,0,0,0,0,0,0,0,0,0,0,0,0,0,0,0,0,0,0,0,0,0,0,0,0,0,0,0,0,0,0,0,0,0,0,0,0,0,0,0,0,0,0,0,0,0,0,0,0,0,0,0,0,0,0,0,0,0,0,
0,0,0,0,0,0,0,0,0,0,0,0,0,0,0,0,0,0,0,0,0,0,0,0,0,0,0,0,0,0,0,0,0,0,0,0,0,0,0,0,0,0,0,0,0,0,0,0,0,0,0,0,0,0,0,0,0,0,0,0,0,0,0,0,0,0,0,0,0,0,0,0,0,0,0,0,0,0,0,0,
0,0,0,0,0,0,0,0,0,0,0,0,0,0,0,0,0,0,0,0,0,0,0,0,0,0,0,0,0,0,0,0,0,0,0,0,0,0,0,0,0,0,0,0,0,0,0,0,0,0,0,0,0,0,0,0,0,0,0,0,0,0,0,0,0,0,0,0,0,0,0,0,0,0,0,0,0,0,0,0,
0,0,0,0,0,0,0,0,0,0,0,0,0,0,0,0,0,0,0,0,0,0,0,0,0,0,0,0,0,0,0,0,0,0,0,0,0,0,0,0,0,0,0,0,0,0,0,0,0,0,0,0,0,0,0,0,0,0,0,0,0,0,0,0,0,0,0,0,0,0,0,0,0,0,0,0,0,0,0,0,
0,0,0,0,0,0,0,0,0,0,0,0,0,0,0,0,0,0,0,0,0,0,0,0,0,0,0,0,0,0,0,0,0,0,0,0,0,0,0,0,0,0,0,0,0,0,0,0,0,0,0,0,0,0,0,0,0,0,0,0,0,0,0,0,0,0,0,0,0,0,0,0,0,0,0,0,0,0,0,0,
0,0,0,0,0,0,0,0,0,0,0,0,0,0,0,0,0,0,0,0,0,0,0,0,0,0,0,0,0,0,0,0,0,0,0,0,0,0,0,0,0,0,0,0,0,0,0,0,0,0,0,0,0,0,0,0,0,0,0,0,0,0,0,0,0,0,0,0,0,0,0,0,0,0,0,0,0,0,0,0,
0,0,0,0,0,0,0,0,0,0,0,0,0,0,0,0,0,0,0,0,0,0,0,0,0,0,0,0,0,0,0,0,0,0,0,0,0,0,0,0,0,0,0,0,0,0,0,0,0,0,0,0,0,0,0,0,0,0,0,0,0,0,0,0,0,0,0,0,0,0,0,0,0,0,0,0,0,0,0,0
</data>
 </layer>
 <objectgroup id="3" name="Object Layer 1">
  <object id="2" x="1056" y="1120">
   <properties>
    <property name="entityType" value="Unit"/>
    <property name="name" value="player"/>
    <property name="teamCode" value="Ally"/>
   </properties>
   <point/>
  </object>
  <object id="3" x="1280" y="1280">
   <properties>
    <property name="entityType" value="Unit"/>
    <property name="name" value="cat_stone"/>
    <property name="teamCode" value="Ally"/>
   </properties>
   <point/>
  </object>
  <object id="4" x="1408" y="1152">
   <properties>
    <property name="entityType" value="Object"/>
    <property name="name" value="pillar1"/>
   </properties>
   <point/>
  </object>
  <object id="5" x="1152" y="1408">
   <properties>
    <property name="entityType" value="Object"/>
    <property name="name" value="pillar2"/>
   </properties>
   <point/>
  </object>
  <object id="7" x="896" y="1120">
   <properties>
    <property name="entityType" value="Unit"/>
    <property name="name" value="orc1"/>
    <property name="teamCode" value="Enemy"/>
   </properties>
   <point/>
  </object>
  <object id="8" x="1152" y="1152">
   <properties>
    <property name="entityType" value="Object"/>
    <property name="name" value="pillar3"/>
   </properties>
   <point/>
  </object>
  <object id="9" x="1408" y="1408">
   <properties>
    <property name="entityType" value="Object"/>
    <property name="name" value="pillar3"/>
   </properties>
   <point/>
  </object>
  <object id="11" x="1280" y="704">
   <properties>
    <property name="entityType" value="Unit"/>
    <property name="name" value="orc1Spawner"/>
    <property name="teamCode" value="Enemy"/>
   </properties>
   <point/>
  </object>
 </objectgroup>
</map>
